static/images/netlify.svg

<?xml version="1.0" encoding="UTF-8"?>
<svg width="147px" height="40px" viewBox="0 0 147 40" version="1.1" xmlns="http://www.w3.org/2000/svg" xmlns:xlink="http://www.w3.org/1999/xlink">
    <title>netlify</title>
    <g id="Page-1" stroke="none" stroke-width="1" fill="none" fill-rule="evenodd">
        <g id="netlify" fill="#2C343C">
            <path d="M53.37,12.978 L53.493,15.176 C54.896,13.476 56.738,12.626 59.018,12.626 C62.969,12.626 64.98,14.894 65.05,19.43 L65.05,31.998 L60.79,31.998 L60.79,19.676 C60.79,18.469 60.53,17.576 60.01,16.995 C59.49,16.415 58.639,16.125 57.458,16.125 C55.739,16.125 54.458,16.905 53.618,18.463 L53.618,31.998 L49.356,31.998 L49.356,12.978 L53.372,12.978 L53.37,12.978 Z M77.748,32.35 C75.048,32.35 72.858,31.498 71.181,29.793 C69.503,28.088 68.664,25.817 68.664,22.981 L68.664,22.454 C68.664,20.556 69.029,18.859 69.76,17.365 C70.49,15.871 71.517,14.708 72.838,13.875 C74.159,13.044 75.632,12.628 77.258,12.628 C79.841,12.628 81.838,13.454 83.246,15.106 C84.656,16.759 85.36,19.096 85.36,22.12 L85.36,23.843 L72.96,23.843 C73.09,25.413 73.612,26.655 74.53,27.569 C75.448,28.483 76.603,28.94 77.994,28.94 C79.946,28.94 81.536,28.15 82.764,26.567 L85.061,28.765 C84.301,29.901 83.287,30.783 82.019,31.41 C80.75,32.037 79.327,32.35 77.749,32.35 L77.748,32.35 Z M77.24,16.056 C76.07,16.056 75.127,16.466 74.408,17.286 C73.688,18.106 73.23,19.249 73.031,20.714 L81.151,20.714 L81.151,20.397 C81.057,18.967 80.677,17.887 80.011,17.154 C79.344,16.422 78.421,16.056 77.24,16.056 L77.24,16.056 Z M94.005,8.356 L94.005,12.979 L97.355,12.979 L97.355,16.143 L94.005,16.143 L94.005,26.76 C94.005,27.486 94.149,28.01 94.435,28.333 C94.721,28.655 95.233,28.816 95.97,28.816 C96.4717685,28.8145986 96.9717142,28.7555446 97.46,28.64 L97.46,31.945 C96.49,32.215 95.555,32.349 94.654,32.349 C91.381,32.349 89.744,30.539 89.744,26.918 L89.744,16.142 L86.62,16.142 L86.62,12.978 L89.742,12.978 L89.742,8.355 L94.003,8.355 L94.005,8.356 Z M105.142,31.999 L100.88,31.999 L100.88,4.999 L105.142,4.999 L105.142,31.999 Z M114.314,31.999 L110.052,31.999 L110.052,12.979 L114.314,12.979 L114.314,31.999 Z M109.789,8.039 C109.789,7.384 109.996,6.839 110.411,6.405 C110.827,5.972 111.42,5.755 112.191,5.755 C112.963,5.755 113.559,5.972 113.981,6.405 C114.401,6.839 114.611,7.384 114.611,8.04 C114.611,8.684 114.401,9.22 113.981,9.648 C113.559,10.076 112.963,10.29 112.191,10.29 C111.42,10.29 110.827,10.076 110.411,9.648 C109.996,9.221 109.789,8.684 109.789,8.04 L109.789,8.039 Z M120.452,31.999 L120.452,16.142 L117.558,16.142 L117.558,12.978 L120.452,12.978 L120.452,11.238 C120.452,9.128 121.036,7.5 122.205,6.351 C123.375,5.203 125.011,4.629 127.115,4.629 C127.864,4.629 128.659,4.734 129.501,4.945 L129.396,8.285 C128.858209,8.18518462 128.311934,8.13829402 127.765,8.145 C125.73,8.145 124.713,9.193 124.713,11.291 L124.713,12.978 L128.571,12.978 L128.571,16.142 L124.713,16.142 L124.713,31.998 L120.452,31.998 L120.452,31.999 Z M138.322,25.882 L142.18,12.979 L146.722,12.979 L139.182,34.882 C138.024,38.081 136.06,39.681 133.289,39.681 C132.669,39.681 131.985,39.575 131.237,39.364 L131.237,36.059 L132.044,36.112 C133.119,36.112 133.929,35.916 134.473,35.523 C135.016,35.131 135.446,34.472 135.762,33.546 L136.375,31.911 L129.711,12.979 L134.306,12.979 L138.322,25.882 Z" id="Shape"></path>
            <path d="M27.887,14.135 L27.873,14.129 C27.865,14.126 27.857,14.123 27.85,14.116 C27.8267454,14.0910219 27.8164014,14.056665 27.822,14.023 L28.595,9.297 L32.22,12.923 L28.45,14.527 C28.4395229,14.5312249 28.4282937,14.5332666 28.417,14.5330231 L28.402,14.5330231 C28.397,14.53 28.392,14.526 28.382,14.516 C28.2416992,14.3597855 28.07392,14.2306463 27.887,14.135 L27.887,14.135 Z M33.145,13.847 L37.021,17.723 C37.826,18.529 38.229,18.931 38.376,19.397 C38.398,19.466 38.416,19.535 38.43,19.606 L29.167,15.683 C29.1620223,15.6809446 29.157022,15.6789445 29.152,15.677 C29.115,15.662 29.072,15.645 29.072,15.607 C29.072,15.569 29.116,15.551 29.153,15.536 L29.165,15.531 L33.145,13.847 Z M38.272,20.85 C38.072,21.226 37.682,21.616 37.022,22.277 L32.652,26.646 L27,25.469 L26.97,25.463 C26.92,25.455 26.867,25.446 26.867,25.401 C26.8236089,24.9296908 26.5863699,24.4975899 26.212,24.208 C26.189,24.185 26.195,24.149 26.202,24.116 C26.202,24.111 26.202,24.106 26.204,24.102 L27.267,17.576 L27.271,17.554 C27.277,17.504 27.286,17.446 27.331,17.446 C27.7911638,17.3887553 28.2090834,17.1491721 28.491,16.781 C28.5,16.771 28.506,16.76 28.518,16.754 C28.55,16.739 28.588,16.754 28.621,16.768 L38.271,20.85 L38.272,20.85 Z M31.647,27.651 L24.461,34.837 L25.691,27.277 L25.693,27.267 C25.694,27.257 25.696,27.247 25.699,27.238 C25.709,27.214 25.735,27.204 25.76,27.194 L25.772,27.189 C26.0413157,27.0740946 26.2795111,26.8969047 26.467,26.672 C26.491,26.644 26.52,26.617 26.557,26.612 C26.5666031,26.6104324 26.5763969,26.6104324 26.586,26.612 L31.646,27.652 L31.647,27.651 Z M22.94,36.358 L22.13,37.168 L13.175,24.226 C13.1717617,24.2212662 13.1684277,24.2165986 13.165,24.212 C13.151,24.193 13.136,24.174 13.139,24.152 C13.139,24.136 13.15,24.122 13.161,24.11 L13.171,24.097 C13.198,24.057 13.221,24.017 13.246,23.974 L13.266,23.939 L13.269,23.936 C13.283,23.912 13.296,23.889 13.32,23.876 C13.341,23.866 13.37,23.87 13.393,23.875 L23.314,25.921 C23.3417403,25.9253138 23.3679087,25.9366764 23.39,25.954 C23.403,25.967 23.406,25.981 23.409,25.997 C23.5492807,26.5277603 23.9295833,26.9624447 24.437,27.172 C24.465,27.186 24.453,27.217 24.44,27.25 C24.433514,27.2644631 24.428489,27.2795379 24.425,27.295 C24.3,28.055 23.228,34.593 22.94,36.358 Z M21.248,38.049 C20.651,38.64 20.299,38.953 19.901,39.079 C19.5085761,39.2030902 19.0874239,39.2030902 18.695,39.079 C18.229,38.931 17.826,38.529 17.021,37.723 L8.028,28.73 L10.377,25.087 C10.388,25.069 10.399,25.053 10.417,25.04 C10.442,25.022 10.478,25.03 10.508,25.04 C11.0471605,25.2026614 11.6260435,25.1733285 12.146,24.957 C12.173,24.9470459 12.2,24.94 12.221,24.959 C12.2315013,24.9685854 12.2408934,24.9793193 12.249,24.991 L21.248,38.049 Z M7.16,27.863 L5.098,25.8 L9.172,24.062 C9.18241347,24.0574592 9.19363982,24.0550778 9.205,24.055 C9.239,24.055 9.259,24.089 9.277,24.12 C9.317942,24.1829884 9.36130782,24.2443677 9.407,24.304 L9.42,24.32 C9.432,24.337 9.424,24.354 9.412,24.37 L7.162,27.863 L7.16,27.863 Z M4.184,24.887 L1.574,22.277 C1.13,21.833 0.808,21.511 0.584,21.234 L8.52,22.88 C8.52996901,22.8818476 8.53997064,22.8835145 8.55,22.885 C8.599,22.893 8.653,22.902 8.653,22.948 C8.653,22.998 8.594,23.021 8.544,23.04 L8.521,23.05 L4.184,24.887 Z M0.13,19.892 C0.139044156,19.7238694 0.169283357,19.5575538 0.22,19.397 C0.368,18.931 0.77,18.529 1.576,17.723 L4.916,14.383 C6.45383313,16.6148797 7.99583583,18.8438836 9.542,21.07 C9.569,21.106 9.599,21.146 9.568,21.176 C9.422,21.337 9.276,21.513 9.173,21.704 C9.16182604,21.728551 9.14462646,21.7498785 9.123,21.766 C9.11,21.774 9.096,21.771 9.081,21.768 L9.079,21.768 L0.129,19.891 L0.13,19.892 Z M5.81,13.489 L10.3,8.998 C10.723,9.183 12.26,9.832 13.633,10.412 C14.673,10.852 15.621,11.252 15.919,11.382 C15.949,11.394 15.976,11.406 15.989,11.436 C15.997,11.454 15.993,11.477 15.989,11.496 C15.8445908,12.1545202 16.0411423,12.8415108 16.512,13.324 C16.542,13.354 16.512,13.397 16.486,13.434 L16.472,13.455 L11.912,20.518 C11.9,20.538 11.889,20.555 11.869,20.568 C11.845,20.583 11.811,20.576 11.783,20.569 C11.6056449,20.5225339 11.4233213,20.4976868 11.24,20.495 C11.076,20.495 10.898,20.525 10.718,20.558 L10.717,20.558 C10.697,20.561 10.679,20.565 10.663,20.553 C10.6453284,20.5385582 10.6301291,20.5213323 10.618,20.502 L5.81,13.489 L5.81,13.489 Z M11.208,8.091 L17.022,2.277 C17.827,1.472 18.23,1.069 18.696,0.922 C19.0884239,0.797909804 19.5095761,0.797909804 19.902,0.922 C20.368,1.069 20.771,1.472 21.576,2.277 L22.836,3.537 L18.7,9.94 C18.6897707,9.95864308 18.6758146,9.97498188 18.659,9.988 C18.634,10.005 18.599,9.998 18.569,9.988 C17.9071452,9.78714611 17.1888165,9.92557405 16.649,10.358 C16.622,10.386 16.582,10.37 16.548,10.355 C16.008,10.12 11.808,8.345 11.207,8.09 L11.208,8.091 Z M23.714,4.415 L27.532,8.233 L26.612,13.931 L26.612,13.946 C26.6111786,13.958986 26.608484,13.9717851 26.604,13.984 C26.594,14.004 26.574,14.008 26.554,14.014 C26.3572991,14.0735815 26.1720404,14.1658728 26.006,14.287 C25.9988617,14.2920871 25.9921707,14.2977745 25.986,14.304 C25.975,14.316 25.964,14.327 25.946,14.3290544 C25.9313499,14.3294526 25.9167501,14.3270759 25.903,14.322 L20.085,11.85 L20.074,11.845 C20.037,11.83 19.993,11.812 19.993,11.774 C19.9588032,11.4497842 19.8529124,11.1372356 19.683,10.859 C19.655,10.813 19.624,10.765 19.648,10.718 L23.714,4.415 Z M19.78,13.02 L25.234,15.33 C25.264,15.344 25.297,15.357 25.31,15.388 C25.3152043,15.4066436 25.3152043,15.4263564 25.31,15.445 C25.294,15.525 25.28,15.616 25.28,15.708 L25.28,15.861 C25.28,15.899 25.241,15.915 25.205,15.93 L25.194,15.934 C24.33,16.303 13.064,21.107 13.047,21.107 C13.03,21.107 13.012,21.107 12.995,21.09 C12.965,21.06 12.995,21.018 13.022,20.98 C13.0267734,20.9734087 13.0314407,20.9667412 13.036,20.96 L17.518,14.02 L17.526,14.008 C17.552,13.966 17.582,13.919 17.63,13.919 L17.675,13.926 C17.777,13.94 17.867,13.953 17.958,13.953 C18.638,13.953 19.268,13.622 19.648,13.056 C19.6570537,13.0408856 19.6685416,13.0273704 19.682,13.016 C19.709,12.996 19.749,13.006 19.78,13.02 L19.78,13.02 Z M13.534,22.205 L25.814,16.968 C25.814,16.968 25.832,16.968 25.849,16.985 C25.916,17.052 25.973,17.097 26.028,17.139 L26.055,17.156 C26.08,17.17 26.105,17.186 26.107,17.212 C26.107,17.222 26.107,17.228 26.105,17.237 L25.054,23.7 L25.05,23.726 C25.043,23.776 25.036,23.833 24.989,23.833 C24.419594,23.8714334 23.9058315,24.1883721 23.616,24.68 L23.611,24.688 C23.597,24.711 23.584,24.733 23.561,24.745 C23.54,24.755 23.513,24.751 23.491,24.746 L13.698,22.726 C13.688,22.724 13.546,22.207 13.535,22.206 L13.534,22.205 Z" id="Shape"></path>
        </g>
    </g>
</svg>

<svg width="147" height="40" viewBox="0 0 147 40" xmlns="http://www.w3.org/2000/svg"><g fill="#2C343C" fill-rule="evenodd"><path d="M53.37 12.978l.123 2.198c1.403-1.7 3.245-2.55 5.525-2.55 3.951 0 5.962 2.268 6.032 6.804v12.568h-4.26V19.676c0-1.207-.26-2.1-.78-2.681-.52-.58-1.371-.87-2.552-.87-1.719 0-3 .78-3.84 2.338v13.535h-4.262v-19.02h4.016-.002zM77.748 32.35c-2.7 0-4.89-.852-6.567-2.557-1.678-1.705-2.517-3.976-2.517-6.812v-.527c0-1.898.365-3.595 1.096-5.089.73-1.494 1.757-2.657 3.078-3.49 1.321-.831 2.794-1.247 4.42-1.247 2.583 0 4.58.826 5.988 2.478 1.41 1.653 2.114 3.99 2.114 7.014v1.723h-12.4c.13 1.57.652 2.812 1.57 3.726.918.914 2.073 1.371 3.464 1.371 1.952 0 3.542-.79 4.77-2.373l2.297 2.198c-.76 1.136-1.774 2.018-3.042 2.645-1.269.627-2.692.94-4.27.94h-.001zm-.508-16.294c-1.17 0-2.113.41-2.832 1.23-.72.82-1.178 1.963-1.377 3.428h8.12v-.317c-.094-1.43-.474-2.51-1.14-3.243-.667-.732-1.59-1.098-2.771-1.098zm16.765-7.7v4.623h3.35v3.164h-3.35V26.76c0 .726.144 1.25.43 1.573.286.322.798.483 1.535.483a6.55 6.55 0 001.49-.176v3.305c-.97.27-1.905.404-2.806.404-3.273 0-4.91-1.81-4.91-5.431V16.142H86.62v-3.164h3.122V8.355h4.261l.002.001zm11.137 23.643h-4.262v-27h4.262v27zm9.172 0h-4.262v-19.02h4.262v19.02zm-4.525-23.96c0-.655.207-1.2.622-1.634.416-.433 1.009-.65 1.78-.65.772 0 1.368.217 1.79.65.42.434.63.979.63 1.635 0 .644-.21 1.18-.63 1.608-.422.428-1.018.642-1.79.642-.771 0-1.364-.214-1.78-.642-.415-.427-.622-.964-.622-1.608v-.001zm10.663 23.96V16.142h-2.894v-3.164h2.894v-1.74c0-2.11.584-3.738 1.753-4.887 1.17-1.148 2.806-1.722 4.91-1.722.749 0 1.544.105 2.386.316l-.105 3.34a8.375 8.375 0 00-1.631-.14c-2.035 0-3.052 1.048-3.052 3.146v1.687h3.858v3.164h-3.858v15.856h-4.261v.001zm17.87-6.117l3.858-12.903h4.542l-7.54 21.903c-1.158 3.199-3.122 4.799-5.893 4.799-.62 0-1.304-.106-2.052-.317v-3.305l.807.053c1.075 0 1.885-.196 2.429-.589.543-.392.973-1.051 1.289-1.977l.613-1.635-6.664-18.932h4.595l4.016 12.903zM27.887 14.135l-.014-.006a.06.06 0 01-.023-.013.11.11 0 01-.028-.093l.773-4.726 3.625 3.626-3.77 1.604a.083.083 0 01-.033.006h-.015a.105.105 0 01-.02-.017 1.716 1.716 0 00-.495-.381zm5.258-.288l3.876 3.876c.805.806 1.208 1.208 1.355 1.674.022.069.04.138.054.209l-9.263-3.923a.729.729 0 00-.015-.006c-.037-.015-.08-.032-.08-.07 0-.038.044-.056.081-.071l.012-.005 3.98-1.684zm5.127 7.003c-.2.376-.59.766-1.25 1.427l-4.37 4.369L27 25.469l-.03-.006c-.05-.008-.103-.017-.103-.062a1.706 1.706 0 00-.655-1.193c-.023-.023-.017-.059-.01-.092 0-.005 0-.01.002-.014l1.063-6.526.004-.022c.006-.05.015-.108.06-.108a1.73 1.73 0 001.16-.665c.009-.01.015-.021.027-.027.032-.015.07 0 .103.014l9.65 4.082h.001zm-6.625 6.801l-7.186 7.186 1.23-7.56.002-.01a.136.136 0 01.006-.029c.01-.024.036-.034.061-.044l.012-.005a1.85 1.85 0 00.695-.517c.024-.028.053-.055.09-.06a.09.09 0 01.029 0l5.06 1.04.001-.001zm-8.707 8.707l-.81.81-8.955-12.942a.424.424 0 00-.01-.014c-.014-.019-.029-.038-.026-.06 0-.016.011-.03.022-.042l.01-.013c.027-.04.05-.08.075-.123l.02-.035.003-.003c.014-.024.027-.047.051-.06.021-.01.05-.006.073-.001l9.921 2.046a.164.164 0 01.076.033c.013.013.016.027.019.043.14.53.52.965 1.028 1.175.028.014.016.045.003.078a.238.238 0 00-.015.045c-.125.76-1.197 7.298-1.485 9.063zm-1.692 1.691c-.597.591-.949.904-1.347 1.03a2 2 0 01-1.206 0c-.466-.148-.869-.55-1.674-1.356L8.028 28.73l2.349-3.643a.15.15 0 01.04-.047c.025-.018.061-.01.091 0 .54.163 1.118.133 1.638-.083.027-.01.054-.017.075.002.01.01.02.02.028.032l8.999 13.058zM7.16 27.863L5.098 25.8l4.074-1.738a.084.084 0 01.033-.007c.034 0 .054.034.072.065.04.063.084.124.13.184l.013.016c.012.017.004.034-.008.05l-2.25 3.493H7.16zm-2.976-2.976l-2.61-2.61c-.444-.444-.766-.766-.99-1.043L8.52 22.88a.84.84 0 00.03.005c.049.008.103.017.103.063 0 .05-.059.073-.109.092l-.023.01-4.337 1.837zM.13 19.892a2 2 0 01.09-.495c.148-.466.55-.868 1.356-1.674l3.34-3.34c1.538 2.232 3.08 4.46 4.626 6.687.027.036.057.076.026.106a2.776 2.776 0 00-.395.528.16.16 0 01-.05.062c-.013.008-.027.005-.042.002h-.002l-8.95-1.877.001.001zm5.68-6.403l4.49-4.491c.423.185 1.96.834 3.333 1.414 1.04.44 1.988.84 2.286.97.03.012.057.024.07.054.008.018.004.041 0 .06a2.003 2.003 0 00.523 1.828c.03.03 0 .073-.026.11l-.014.021-4.56 7.063a.138.138 0 01-.043.05c-.024.015-.058.008-.086.001a2.274 2.274 0 00-.543-.074c-.164 0-.342.03-.522.063h-.001c-.02.003-.038.007-.054-.005a.21.21 0 01-.045-.051L5.81 13.489zm5.398-5.398l5.814-5.814c.805-.805 1.208-1.208 1.674-1.355a2 2 0 011.206 0c.466.147.869.55 1.674 1.355l1.26 1.26L18.7 9.94a.155.155 0 01-.041.048c-.025.017-.06.01-.09 0a2.097 2.097 0 00-1.92.37c-.027.028-.067.012-.101-.003-.54-.235-4.74-2.01-5.341-2.265l.001.001zm12.506-3.676l3.818 3.818-.92 5.698v.015a.135.135 0 01-.008.038c-.01.02-.03.024-.05.03a1.83 1.83 0 00-.568.29c-.011.012-.022.023-.04.025a.115.115 0 01-.043-.007l-5.818-2.472-.011-.005c-.037-.015-.081-.033-.081-.071a2.198 2.198 0 00-.31-.915c-.028-.046-.059-.094-.035-.141l4.066-6.303zM19.78 13.02l5.454 2.31c.03.014.063.027.076.058a.106.106 0 010 .057c-.016.08-.03.171-.03.263v.153c0 .038-.039.054-.075.069l-.011.004c-.864.369-12.13 5.173-12.147 5.173-.017 0-.035 0-.052-.017-.03-.03 0-.072.027-.11a.76.76 0 00.014-.02l4.482-6.94.008-.012c.026-.042.056-.089.104-.089l.045.007c.102.014.192.027.283.027.68 0 1.31-.331 1.69-.897a.16.16 0 01.034-.04c.027-.02.067-.01.098.004zm-6.246 9.185l12.28-5.237s.018 0 .035.017c.067.067.124.112.179.154l.027.017c.025.014.05.03.052.056 0 .01 0 .016-.002.025L25.054 23.7l-.004.026c-.007.05-.014.107-.061.107a1.729 1.729 0 00-1.373.847l-.005.008c-.014.023-.027.045-.05.057-.021.01-.048.006-.07.001l-9.793-2.02c-.01-.002-.152-.519-.163-.52l-.001-.001z"/></g></svg>
